src/images/delete.svg

<svg fill="none" height="30" viewBox="0 0 30 30" width="30" xmlns="http://www.w3.org/2000/svg"><path clip-rule="evenodd" d="m16.0608 14.8822 2.2392-2.2393-1.0606-1.0606-2.2393 2.2392-2.2391-2.2391-1.0607 1.0607 2.2392 2.2391-2.357 2.3569 1.0607 1.0607 2.3569-2.3569 2.3571 2.357 1.0606-1.0607z" fill="#fff" fill-rule="evenodd"/></svg>

<svg width="30" height="30" viewBox="0 0 30 30" fill="none" xmlns="http://www.w3.org/2000/svg">
<path fill-rule="evenodd" clip-rule="evenodd" d="M16.0608 14.8822L18.3 12.6429L17.2394 11.5823L15.0001 13.8215L12.761 11.5824L11.7003 12.6431L13.9395 14.8822L11.5825 17.2391L12.6432 18.2998L15.0001 15.9429L17.3572 18.2999L18.4178 17.2392L16.0608 14.8822Z" fill="white"/>
</svg>
